src/icons/src/water.svg

<svg height="32" viewBox="0 0 32 32" width="32" xmlns="http://www.w3.org/2000/svg"><path d="m15.948958 0c-9.14019645 11.1439311-10.80324968 18.2582757-10.39233662 22.4531587.37055899 5.3329453 4.80174612 9.5468413 10.22936822 9.5468413 5.5292834 0 10.0252698-4.3749242 10.244113-9.8522129.7089124-9.2333212-10.0811446-22.1477871-10.0811446-22.1477871zm-3.316018 26.945653s-2.3568327 1.0608463-3.84915723-2.0817267c0 0-2.78908694-3.4172912 2.04253673-12.1372621 0 0-2.27845282 6.5210622 2.3568327 12.019304 0-.000388.8245423 1.4927125-.5502122 2.1996848z" fill-rule="evenodd"/></svg>

<?xml version="1.0" encoding="UTF-8" standalone="no"?>
<svg width="32px" height="32px" viewBox="0 0 32 32" version="1.1" xmlns="http://www.w3.org/2000/svg" xmlns:xlink="http://www.w3.org/1999/xlink">
    <!-- Generator: Sketch 39.1 (31720) - http://www.bohemiancoding.com/sketch -->
    <title>water</title>
    <desc>Created with Sketch.</desc>
    <defs></defs>
    <g id="Page-1" stroke="none" stroke-width="1" fill="none" fill-rule="evenodd">
        <g id="water" fill="#000000">
            <path d="M15.948958,4.50938163e-15 C6.80876155,11.1439311 5.14570832,18.2582757 5.55662138,22.4531587 C5.92718037,27.786104 10.3583675,32 15.7859896,32 C21.315273,32 25.8112594,27.6250758 26.0301026,22.1477871 C26.739015,12.9144659 15.948958,4.50938163e-15 15.948958,4.50938163e-15 L15.948958,4.50938163e-15 Z M12.63294,26.945653 C12.63294,26.945653 10.2761073,28.0064993 8.78378277,24.8639263 C8.78378277,24.8639263 5.99469583,21.4466351 10.8263195,12.7266642 C10.8263195,12.7266642 8.54786668,19.2477264 13.1831522,24.7459682 C13.1831522,24.7455802 14.0076945,26.2386807 12.63294,26.945653 L12.63294,26.945653 Z" id="Shape"></path>
        </g>
    </g>
</svg>
